_assets/images/tidal.svg

<svg height="445" viewBox="0 0 667 445" width="667" xmlns="http://www.w3.org/2000/svg"><path d="m110.841019 0h1.376462c10.498968 12.0440468 22.367516 22.7116311 33.551273 34.2395045l76.049553 76.0495525v1.376463c-36.816931 36.648313-73.468686 73.640743-110.289057 110.289057-36.9924296-36.820372-73.8128013-73.812801-110.80523073-110.633173 1.89607708-3.613214 5.50584997-6.022023 8.25877495-8.947006 33.89538888-34.2395047 68.30695118-67.9628357 101.85822478-102.374398zm221.954576 0h1.376463c1.035788 1.5485203 2.064694 2.92498279 3.441156 4.30144529 35.615967 35.27185131 70.719202 71.05987611 106.675843 106.15966971-.860289 2.064694-2.752925 3.441156-4.301445 4.989676-35.612526 35.44391-71.059876 71.059877-106.675843 106.503786-37.164488-36.648314-73.640744-73.984859-110.977289-110.461115 36.132141-37.6806609 74.156917-73.9848591 110.461115-111.493462zm221.954577 0h1.376463c6.882312 8.25877495 14.969029 15.3131452 22.367515 23.0557467 27.873365 27.8733655 55.578114 55.5746731 83.448039 83.4480383 1.379903 1.548521 3.616655 2.924983 4.129387 5.161735-37.336545 36.304198-73.468685 73.984859-110.977288 110.289057l-105.815554-105.815554c-1.720578-1.892636-3.95733-3.269099-4.817619-5.677908 18.754301-18.2381281 36.992429-36.9924295 55.574673-55.4026153 18.238128-18.4101859 36.820372-36.3041983 54.714384-55.0584997zm-330.867171 331.211287c36.304198-36.304198 72.780454-72.608396 109.084652-109.084652l1.545079.688231c36.476256 36.648314 72.952512 73.296627 109.772884 109.600826-1.200964 2.752925-3.781831 4.301445-5.677908 6.538197-26.493462 26.324845-52.993806 52.993805-79.490709 79.318651-8.60289 8.258775-16.861665 17.549896-25.633172 25.292498-12.560221-11.355816-24.088094-24.088094-36.30764-35.788025-24.772883-24.776325-49.377151-49.55265-74.325533-74.156917.344115-.688231.688231-1.720578 1.032347-2.408809z" stroke="#000" stroke-width=".5" transform="translate(0 1)"/></svg>

<?xml version="1.0" encoding="UTF-8"?>
<svg width="667px" height="445px" viewBox="0 0 667 445" version="1.1" xmlns="http://www.w3.org/2000/svg" xmlns:xlink="http://www.w3.org/1999/xlink">
    <!-- Generator: Sketch 56.2 (81672) - https://sketch.com -->
    <title>tidal</title>
    <desc>Created with Sketch.</desc>
    <g id="Page-1" stroke="none" stroke-width="1" fill="none" fill-rule="evenodd">
        <g id="tidal" transform="translate(0.000000, 1.000000)" fill="#000000" fill-rule="nonzero" stroke="#000000" stroke-width="0.5">
            <path d="M110.841019,0 L112.217481,0 C122.716449,12.0440468 134.584997,22.7116311 145.768754,34.2395045 L221.818307,110.289057 L221.818307,111.66552 C185.001376,148.313833 148.349621,185.306263 111.52925,221.954577 C74.5368204,185.134205 37.7164487,148.141776 0.72401927,111.321404 C2.62009635,107.70819 6.22986924,105.299381 8.98279422,102.374398 C42.8781831,68.1348933 77.2897454,34.4115623 110.841019,0 Z M332.795595,0 L334.172058,0 C335.207846,1.5485203 336.236752,2.92498279 337.613214,4.30144529 C373.229181,39.5732966 408.332416,75.3613214 444.289057,110.461115 C443.428768,112.525809 441.536132,113.902271 439.987612,115.450791 C404.375086,150.894701 368.927736,186.510668 333.311769,221.954577 C296.147281,185.306263 259.671025,147.969718 222.33448,111.493462 C258.466621,73.8128011 296.491397,37.5086029 332.795595,0 Z M554.750172,0 L556.126635,0 C563.008947,8.25877495 571.095664,15.3131452 578.49415,23.0557467 C606.367515,50.9291122 634.072264,78.6304198 661.942189,106.503785 C663.322092,108.052306 665.558844,109.428768 666.071576,111.66552 C628.735031,147.969718 592.602891,185.650379 555.094288,221.954577 L449.278734,116.139023 C447.558156,114.246387 445.321404,112.869924 444.461115,110.461115 C463.215416,92.2229869 481.453544,73.4686855 500.035788,55.0584997 C518.273916,36.6483138 536.85616,18.7543014 554.750172,0 Z M223.883001,331.211287 C260.187199,294.907089 296.663455,258.602891 332.967653,222.126635 L334.512732,222.814866 C370.988988,259.46318 407.465244,296.111493 444.285616,332.415692 C443.084652,335.168617 440.503785,336.717137 438.607708,338.953889 C412.114246,365.278734 385.613902,391.947694 359.116999,418.27254 C350.514109,426.531315 342.255334,435.822436 333.483827,443.565038 C320.923606,432.209222 309.395733,419.476944 297.176187,407.777013 C272.403304,383.000688 247.799036,358.224363 222.850654,333.620096 C223.194769,332.931865 223.538885,331.899518 223.883001,331.211287 Z" id="Shape"></path>
        </g>
    </g>
</svg>
